T: Bishop, The
M: 2/4
L: 1/8
K: Amaj
|: Aa- ag- | gf- fe | fa ec | dB AG |  Aa- ag- | gf- fe | fa B^d | e2 E2 :||: Ed- dc/B/ | ce- ed | ca Ac | BE EE |  Ac- cB/A/ | Ba gf | ed cB | A2 A2 :|
